src/pos-icons/credit-card-wireless-outline.svg

<svg height="24" viewBox="0 0 24 24" width="24" xmlns="http://www.w3.org/2000/svg"><path d="m18 11h-12a2 2 0 0 0 -2 2v8a2 2 0 0 0 2 2h12a2 2 0 0 0 2-2v-8a2 2 0 0 0 -2-2m0 10h-12v-4h12zm0-6h-12v-2h12zm-13.07-10.08 1.41 1.41c3.12-3.13 8.19-3.13 11.32 0l1.41-1.41c-3.9-3.92-10.23-3.92-14.14 0m2.83 2.83 1.41 1.41c1.56-1.56 4.09-1.56 5.66 0l1.41-1.41c-2.34-2.34-6.14-2.34-8.48 0z"/></svg>

<?xml version="1.0" encoding="UTF-8"?><!DOCTYPE svg PUBLIC "-//W3C//DTD SVG 1.1//EN" "http://www.w3.org/Graphics/SVG/1.1/DTD/svg11.dtd"><svg xmlns="http://www.w3.org/2000/svg" xmlns:xlink="http://www.w3.org/1999/xlink" version="1.1" id="mdi-credit-card-wireless-outline" width="24" height="24" viewBox="0 0 24 24"><path d="M18,11H6A2,2 0 0,0 4,13V21A2,2 0 0,0 6,23H18A2,2 0 0,0 20,21V13A2,2 0 0,0 18,11M18,21H6V17H18V21M18,15H6V13H18V15M4.93,4.92L6.34,6.33C9.46,3.2 14.53,3.2 17.66,6.33L19.07,4.92C15.17,1 8.84,1 4.93,4.92M7.76,7.75L9.17,9.16C10.73,7.6 13.26,7.6 14.83,9.16L16.24,7.75C13.9,5.41 10.1,5.41 7.76,7.75Z" /></svg>
